X:1
T:Title
%%score [ ( 1 2 ) ( 3 4 ) ]
L:1/8
Q:1/4=120
M:3/4
K:G
V:1 treble nm="S A"
V:2 treble 
V:3 bass nm="T B"
V:4 bass 
V:1
"^Morning (77. 77)""^Mary Jane Willcox\n(1835-1919)""^Once again, dear Lord, we pray""^S. S. Wesley\n(1810-1876)" (B2 A2) G2 | %1
 (G2 F2) G2 | (G2 B2) A2 | G6 || (d2 c2) B2 | (B2 A2) G2 | (F2 G2) E2 | D6 || (D2 G2) F2 | F4 E2 | %10
 (A2 ^G2) B2 | A6 | (A2 B2) c2 | d4 d2 | (d2 B2) A2 | G6 |] %16
V:2
 D4 D2 | D4 G2 | G4 F2 | G6 || (G2 F2) G2 | (G2 F2) D2 | (D2 E2) ^C2 | D6 || D4 D2 | D4 C2 | %10
 (C2 B,2) D2 | C6 | D4 D2 | (D2 F2) G2 | G4 F2 | G6 |] %16
V:3
 (D2 C2) B,2 | (B,2 A,2) D2 | (E2 D2) C2 | B,6 || D4 D2 | D4 D2 | (A,2 B,2) G,2 | F,6 || %8
"^1. Once again, dear Lord, we pray\nFor the children far away,\nWho have never even heard\nName of Jesus, sweetest word.\n2. Little lips that thou hast made,\n'Neath the far-off temples' shade\nGive to gods of wood and stone\nPraise that should be all Thine own." (F,2 G,2) G,2 | %9
 G,4 G,2 | E,4 E,2 | E,6 | %12
"^3. Little hands, whose wondrous skill\nThou hast given to do Thy will,\nOfferings bring, and serve with fear\nGods that cannot see or hear.\n4. Teach them, O Thou heavenly King,\nAll their gifts and praise to bring\nTo Thy Son, who died to prove\nThy forgiving, saving love." (F,2 G,2) A,2 | %13
 (B,2 C2) D2 | (E2 D3) C | B,6 |] %16
V:4
 G,4 G,2 | (D,2 C,2) B,,2 | (C,2 D,2) D,2 | G,6 || (B,2 A,2) G,2 | D,4 B,,2 | (A,,2 G,,2) A,,2 | %7
 D,6 || (D,2 B,,2) G,,2 | C,4 C,2 | E,4 E,2 | A,,6 | (C,2 B,,2) A,,2 | (G,,2 A,,2) B,,2 | %14
 (C,2 D,2) D,2 | G,,6 |] %16

